src/lib/packages/icons/src/assets/filled/archway.svg

<svg width="24" height="24" viewBox="0 0 24 24" fill="none" xmlns="http://www.w3.org/2000/svg">
<path d="M21.75 20C21.75 20.42 21.41 20.75 21 20.75H15C14.59 20.75 14.25 20.42 14.25 20V15C14.25 13.76 13.24 12.75 12 12.75C10.76 12.75 9.75 13.76 9.75 15V20C9.75 20.42 9.41 20.75 9 20.75H3C2.59 20.75 2.25 20.42 2.25 20C2.25 19.59 2.59 19.25 3 19.25H5V9.80005C5 9.63405 5.13405 9.5 5.30005 9.5H18.7C18.866 9.5 19 9.63405 19 9.80005V19.25H21C21.41 19.25 21.75 19.59 21.75 20ZM4 8H20C20.667 8 21 7.667 21 7V5C21 4.333 20.667 4 20 4H4C3.333 4 3 4.333 3 5V7C3 7.667 3.333 8 4 8Z" fill="currentColor"/>
</svg>

<svg xmlns="http://www.w3.org/2000/svg" width="24" height="24" fill="none"><path fill="currentColor" d="M21.75 20c0 .42-.34.75-.75.75h-6c-.41 0-.75-.33-.75-.75v-5c0-1.24-1.01-2.25-2.25-2.25S9.75 13.76 9.75 15v5c0 .42-.34.75-.75.75H3a.749.749 0 1 1 0-1.5h2V9.8a.3.3 0 0 1 .3-.3h13.4a.3.3 0 0 1 .3.3v9.45h2c.41 0 .75.34.75.75ZM4 8h16c.667 0 1-.333 1-1V5c0-.667-.333-1-1-1H4c-.667 0-1 .333-1 1v2c0 .667.333 1 1 1Z"/></svg>
